browser/images/lc_forumhelp.svg

<svg viewBox="0 0 24 24" xmlns="http://www.w3.org/2000/svg"><g fill="#83beec" stroke="#0063b1" stroke-linecap="round" stroke-linejoin="round"><path d="m4.9 2.5c-1.3 0-2.4 1-2.4 2.4v9.1c0 1.3 1 2.4 2.4 2.5h1.6v5l4.5-5h8.125c1.275 0 2.375-1.2 2.375-2.5v-9.1c0-1.3-1-2.4-2.4-2.4z"/><path d="m18.5 16.5v5l-4.5-5s4.6 0 4.5 0z"/></g><path d="m13 9h-2v2h2zm3 0h2v2h-2zm-8 0h-2v2h2z" fill="#fafafa"/></svg>

<?xml-stylesheet type="text/css" href="icons.css" ?>
<svg viewBox="0 0 24 24" xmlns="http://www.w3.org/2000/svg">
  <g id="symbol"
	 class="icn icn--highlight-color"
     fill="#83beec"
     stroke="#1e8bcd"
	 stroke-linecap="round"
	 stroke-linejoin="round"
      >
      <path d="m 4.9,2.5 c -1.3,0 -2.4,1 -2.4,2.4 V 14 c 0,1.3 1,2.4 2.4,2.5 H 6.5 v 5 L 11,16.5 h 8.125 C 20.4,16.5 21.5,15.3 21.5,14 V 4.9 c 0,-1.3 -1,-2.4 -2.4,-2.4 z" />
      <path d="m 18.5,16.5 v 5 L 14,16.5 c 0,0 4.6,0 4.5,0 z" />
  </g>
  <g id="background"
     class="icn icn--area-color"
     fill="#fafafa"
     >
      <path d="m 13,9 h -2 v 2 h 2 z m 3,0 h 2 v 2 H 16 Z M 8,9 H 6 v 2 h 2 z" />
  </g>
</svg>
